icon-themes/breeze_svg/cmd/sc_formatgroup.svg

<svg viewBox="0 0 16 16" xmlns="http://www.w3.org/2000/svg">
 <path
   style="fill:#4d4d4d"
   d="m 2,2 v 3 6 1 1 1 h 3 6 1 1 1 V 12 11 5 3 2 H 11 5 3 Z m 1,1 h 2 6 2 v 2 6 1 1 H 12 11 5 3 V 12 11 5 Z M 6,4 C 4.8954305,4 4,4.8954305 4,6 4,7.1045695 4.8954305,8 6,8 7.1045695,8 8,7.1045695 8,6 8,4.8954305 7.1045695,4 6,4 Z m 3,0 v 4 h 3 V 4 Z M 5,9 v 3 H 7 V 9 Z M 10.5,9 9,12 h 3 z"
   />
</svg>

<svg viewBox="0 0 16 16" xmlns="http://www.w3.org/2000/svg"><path d="m2 2v3 6 1 1 1h3 6 1 1 1v-2-1-6-2-1h-3-6-2zm1 1h2 6 2v2 6 1 1h-1-1-6-2v-1-1-6zm3 1c-1.1045695 0-2 .8954305-2 2s.8954305 2 2 2 2-.8954305 2-2-.8954305-2-2-2zm3 0v4h3v-4zm-4 5v3h2v-3zm5.5 0-1.5 3h3z" fill="#4d4d4d"/></svg>
